svg/design/magic_3_fill.svg

<?xml version="1.0" encoding="UTF-8"?>
<svg width="24px" height="24px" viewBox="0 0 24 24" version="1.1" xmlns="http://www.w3.org/2000/svg" xmlns:xlink="http://www.w3.org/1999/xlink">
    <title>magic_3_fill</title>
    <g id="Icon" stroke="none" stroke-width="1" fill="none" fill-rule="evenodd">
        <g id="Design" transform="translate(-816.000000, -432.000000)">
            <g id="magic_3_fill" transform="translate(816.000000, 432.000000)">
                <path d="M24,0 L24,24 L0,24 L0,0 L24,0 Z M12.5935,23.2578 L12.5819,23.2595 L12.5109,23.295 L12.4919,23.2987 L12.4767,23.295 L12.4057,23.2595 C12.3958,23.2564 12.387,23.259 12.3821,23.2649 L12.378,23.2758 L12.3609,23.7031 L12.3659,23.7235 L12.3769,23.7357 L12.4805,23.8097 L12.4953,23.8136 L12.5071,23.8097 L12.6107,23.7357 L12.6233,23.7197 L12.6267,23.7031 L12.6096,23.2758 C12.6076,23.2657 12.601,23.2593 12.5935,23.2578 Z M12.8584,23.1453 L12.8445,23.1473 L12.6598,23.2397 L12.6499,23.2499 L12.6472,23.2611 L12.6651,23.6906 L12.6699,23.7034 L12.6784,23.7105 L12.8793,23.8032 C12.8914,23.8069 12.9022,23.803 12.9078,23.7952 L12.9118,23.7812 L12.8777,23.1665 C12.8753,23.1546 12.8674,23.147 12.8584,23.1453 Z M12.143,23.1473 C12.1332,23.1424 12.1222,23.1453 12.1156,23.1526 L12.1099,23.1665 L12.0758,23.7812 C12.0751,23.7927 12.0828,23.8019 12.0926,23.8046 L12.1083,23.8032 L12.3092,23.7105 L12.3186,23.7024 L12.3225,23.6906 L12.3404,23.2611 L12.3372,23.2485 L12.3278,23.2397 L12.143,23.1473 Z" id="MingCute" fill-rule="nonzero"></path>
                <path d="M8.46441,4.22177 L20.4852,16.2426 C20.8704,16.6277 20.8704,17.2717 20.4852,17.6568 L17.6568,20.4852 C17.2663,20.8757 16.6331,20.8757 16.2426,20.4852 L4.22177,8.46441 C3.44072,7.68337 3.44072,6.41704 4.22177,5.6359825 L5.6359825,4.22177 C6.41704,3.44072 7.68336,3.44072 8.46441,4.22177 Z M4.99961,11.5 C5.44402818,11.4999091 5.75796702,11.7689091 5.94939798,12.1320188 L6.00316,12.2436 C6.299062,12.91707 6.775027,13.509297 7.38818251,13.9156695 L7.59759,14.0441 C7.95625,14.2457 8.21849,14.5686 8.21871028,14.9995 C8.21890557,15.3787889 8.01456185,15.6790654 7.71855768,15.8814369 L7.60348,15.9527 C6.960826,16.31252 6.4490437,16.87403 6.11309053,17.5257659 L6.00768,17.7462 C5.82122,18.168 5.49618,18.5001 4.99966,18.5 C4.54844182,18.4999091 4.23895917,18.2255207 4.04635857,17.8588032 L3.99206,17.7462 C3.687896,17.05806 3.2125223,16.480404 2.60823548,16.0819767 L2.40209,15.9559 C2.043,15.7541 1.7806,15.4303 1.78100904,14.999 C1.78137439,14.6162444 1.9885853,14.3187432 2.28639261,14.1157671 L2.40209,14.0441 C3.035177,13.68599 3.5431514,13.140932 3.88448936,12.4787642 L3.9966,12.2435 C4.18025,11.8255 4.51098,11.5001 4.99961,11.5 Z M17.4314,7.4012 C17.66912,6.92086933 18.2318516,6.88889956 18.5129064,7.3051931 L18.5686,7.40126 C18.7582125,7.78199875 19.0560844,8.11199187 19.441448,8.34610674 L19.6119,8.44044 C20.0767933,8.67186 20.1077862,9.23015573 19.7083747,9.50347618 L19.6162,9.55746 C19.2025,9.765115 18.8766172,10.0734497 18.6583812,10.4349532 L18.5715,10.593 C18.3310733,11.0787067 17.7681613,11.1110871 17.4870944,10.6948569 L17.4314,10.5988 C17.2417875,10.2180875 16.9439156,9.88804406 16.558552,9.65390951 L16.3881,9.55957 C15.9232067,9.32815933 15.8922138,8.76987293 16.2916253,8.49656182 L16.3838,8.44258 C16.7975875,8.23488125 17.1230219,7.92720719 17.3414793,7.56532687 L17.4314,7.4012 Z M7.0502,5.63599 L5.63599,7.0502 L7.7573,9.17151 L9.17151,7.7573 L7.0502,5.63599 Z M13.4998,1.99999997 C13.7942375,1.99993875 14.010275,2.16681437 14.1537408,2.39857768 L14.2144,2.50882 C14.452,2.98586 14.8319802,3.40315877 15.3248428,3.69648804 L15.5202,3.80319 C15.7949,3.93994 15.9998,4.17629 15.9999993,4.49958 C16.000175,4.7827475 15.8432437,4.99938984 15.6197797,5.14083154 L15.5149,5.19946 C14.9942778,5.46081111 14.5828506,5.85411284 14.3101165,6.31522823 L14.2108,6.49849 C14.0704,6.78213 13.8363,7.00006 13.4999,6.99999997 C13.20555,6.9999475 12.9896766,6.83314187 12.8463174,6.60149834 L12.7856,6.49125 C12.5480889,6.01420111 12.1680395,5.59687765 11.6751605,5.30352896 L11.4798,5.19684 C11.2047,5.05991 10.9997,4.823 10.9999993,4.49923 C11.0002625,4.2165 11.1571719,4.00034109 11.3802887,3.859134 L11.4851,3.80056 C12.0057222,3.53919111 12.4167543,3.14673284 12.6897519,2.68506063 L12.7892,2.5015 C12.9296,2.21796 13.1635,2.00007 13.4998,1.99999997 Z" id="形状" fill="#09244B"></path>
            </g>
        </g>
    </g>
</svg>

<svg xmlns="http://www.w3.org/2000/svg" width="24" height="24"><g fill="none" fill-rule="evenodd"><path d="M24 0v24H0V0h24ZM12.594 23.258l-.012.002-.071.035-.02.004-.014-.004-.071-.036c-.01-.003-.019 0-.024.006l-.004.01-.017.428.005.02.01.013.104.074.015.004.012-.004.104-.074.012-.016.004-.017-.017-.427c-.002-.01-.009-.017-.016-.018Zm.264-.113-.014.002-.184.093-.01.01-.003.011.018.43.005.012.008.008.201.092c.012.004.023 0 .029-.008l.004-.014-.034-.614c-.003-.012-.01-.02-.02-.022Zm-.715.002a.023.023 0 0 0-.027.006l-.006.014-.034.614c0 .012.007.02.017.024l.015-.002.201-.093.01-.008.003-.011.018-.43-.003-.012-.01-.01-.184-.092Z"/><path fill="#09244B" d="m8.464 4.222 12.021 12.02a1.01 1.01 0 0 1 0 1.415l-2.828 2.828a1 1 0 0 1-1.414 0L4.222 8.465a2 2 0 0 1 0-2.829l1.414-1.414a2 2 0 0 1 2.828 0ZM5 11.5c.444 0 .758.269.95.632l.053.112a3.867 3.867 0 0 0 1.385 1.672l.21.128c.358.202.62.525.62.955 0 .38-.203.68-.5.882l-.115.072a3.776 3.776 0 0 0-1.49 1.573l-.105.22c-.187.422-.512.754-1.008.754-.452 0-.761-.274-.954-.641l-.054-.113a3.831 3.831 0 0 0-1.384-1.664l-.206-.126c-.359-.202-.621-.526-.621-.957 0-.383.208-.68.505-.883l.116-.072a3.76 3.76 0 0 0 1.482-1.565l.113-.236C4.18 11.826 4.51 11.5 5 11.5ZM17.43 7.401c.238-.48.8-.512 1.082-.096l.056.096c.19.381.487.711.872.945l.17.094c.466.232.497.79.097 1.063l-.092.054c-.413.208-.74.516-.958.878l-.087.158c-.24.486-.803.518-1.084.102l-.056-.096c-.19-.38-.487-.711-.872-.945l-.17-.094c-.466-.232-.497-.79-.097-1.063l.092-.054c.414-.208.739-.516.957-.878l.09-.164ZM7.051 5.636 5.635 7.05l2.121 2.122 1.415-1.415L7.05 5.636ZM13.5 2c.294 0 .51.167.654.399l.06.11c.238.477.618.894 1.11 1.187l.196.107c.275.137.48.373.48.697 0 .283-.157.5-.38.64l-.105.06c-.52.26-.932.654-1.205 1.115l-.1.183c-.14.284-.374.502-.71.502-.294 0-.51-.167-.654-.399l-.06-.11a2.882 2.882 0 0 0-1.11-1.187l-.196-.107c-.275-.137-.48-.374-.48-.698 0-.282.157-.499.38-.64l.105-.058c.52-.262.932-.654 1.205-1.116l.1-.183c.14-.284.374-.502.71-.502Z"/></g></svg>
